src/assets/icons/_swirl.svg

<svg xmlns="http://www.w3.org/2000/svg" width="128" height="128" viewBox="0 0 128 128">
  <path fill="none" stroke="#000" stroke-width="4" d="M60,116 C88.718807,116 112,92.718807 112,64 C112,35.281193 88.718807,12 60,12 C35.699471,12 16,31.699471 16,56 C16,80.300529 35.699471,100 60,100 C79.882251,100 96,83.882251 96,64 C96,44.117749 79.882251,28 60,28 C44.536027,28 32,40.536027 32,56 C32,71.463973 44.536027,84 60,84 C71.045695,84 80,75.045695 80,64 C80,52.954305 71.045695,44 60,44 C53.372583,44 48,49.372583 48,56 C48,62.627417 53.372583,68 60,68"/>
</svg>

<svg xmlns="http://www.w3.org/2000/svg" viewBox="0 0 128 128">
    <path fill="none" stroke="#000" stroke-width="4" d="M60 116c28.719 0 52-23.281 52-52S88.719 12 60 12c-24.3 0-44 19.7-44 44s19.7 44 44 44c19.882 0 36-16.118 36-36S79.882 28 60 28c-15.464 0-28 12.536-28 28s12.536 28 28 28c11.046 0 20-8.954 20-20s-8.954-20-20-20c-6.627 0-12 5.373-12 12s5.373 12 12 12"/>
</svg>
